symbols/web/phone_locked/materialsymbolsoutlined/phone_locked_wght100_48px.svg

<svg xmlns="http://www.w3.org/2000/svg" height="48" width="48"><path d="M36.65 39.1q-4.8 0-9.825-2.65-5.025-2.65-9.175-6.775t-6.825-9.15Q8.15 15.5 8.15 10.75q0-.9.625-1.525Q9.4 8.6 10.3 8.6H14q.9 0 1.525.525.625.525.825 1.425l.9 3.9q.15.8-.05 1.45-.2.65-.7 1.05l-4.25 3.9q3 5 6.575 8.5t8.425 6.15l4.1-4.35q.55-.55 1.1-.75.55-.2 1.25-.05l3.15.7q.85.15 1.375.8t.525 1.6v3.5q0 .9-.6 1.525-.6.625-1.5.625ZM11.7 19.9l4.2-3.85q.25-.2.325-.55.075-.35-.025-.65l-.95-4.35q-.1-.4-.375-.6-.275-.2-.625-.2h-4.3q-.3 0-.5.2t-.2.5q-.1 2 .575 4.425Q10.5 17.25 11.7 19.9Zm25.25 18.15q.3 0 .5-.2t.2-.5v-4.2q0-.4-.2-.675t-.6-.325l-3.5-.7q-.3-.1-.55-.025-.25.075-.45.325L28.25 36q2.05 1.1 4.55 1.575 2.5.475 4.15.475ZM28.25 36ZM11.7 19.9Zm18.65-.6q-.55 0-.95-.4-.4-.4-.4-.95V11.8q0-.55.4-.95.4-.4.95-.4h.75V8.5q0-1.45.95-2.425.95-.975 2.4-.975 1.4 0 2.35.975.95.975.95 2.375v2h.75q.55 0 .95.4.4.4.4.95v6.15q0 .55-.4.95-.4.4-.95.4Zm2.05-8.85h4.05v-2q0-.85-.575-1.45t-1.425-.6q-.85 0-1.45.6t-.6 1.45Z"/></svg>

<svg xmlns="http://www.w3.org/2000/svg" height="48" width="48"><path d="M36.65 39.1Q31.85 39.1 26.825 36.45Q21.8 33.8 17.65 29.675Q13.5 25.55 10.825 20.525Q8.15 15.5 8.15 10.75Q8.15 9.85 8.775 9.225Q9.4 8.6 10.3 8.6H14Q14.9 8.6 15.525 9.125Q16.15 9.65 16.35 10.55L17.25 14.45Q17.4 15.25 17.2 15.9Q17 16.55 16.5 16.95L12.25 20.85Q15.25 25.85 18.825 29.35Q22.4 32.85 27.25 35.5L31.35 31.15Q31.9 30.6 32.45 30.4Q33 30.2 33.7 30.35L36.85 31.05Q37.7 31.2 38.225 31.85Q38.75 32.5 38.75 33.45V36.95Q38.75 37.85 38.15 38.475Q37.55 39.1 36.65 39.1ZM11.7 19.9 15.9 16.05Q16.15 15.85 16.225 15.5Q16.3 15.15 16.2 14.85L15.25 10.5Q15.15 10.1 14.875 9.9Q14.6 9.7 14.25 9.7H9.95Q9.65 9.7 9.45 9.9Q9.25 10.1 9.25 10.4Q9.15 12.4 9.825 14.825Q10.5 17.25 11.7 19.9ZM36.95 38.05Q37.25 38.05 37.45 37.85Q37.65 37.65 37.65 37.35V33.15Q37.65 32.75 37.45 32.475Q37.25 32.2 36.85 32.15L33.35 31.45Q33.05 31.35 32.8 31.425Q32.55 31.5 32.35 31.75L28.25 36Q30.3 37.1 32.8 37.575Q35.3 38.05 36.95 38.05ZM28.25 36Q28.25 36 28.25 36Q28.25 36 28.25 36Q28.25 36 28.25 36Q28.25 36 28.25 36Q28.25 36 28.25 36Q28.25 36 28.25 36Q28.25 36 28.25 36Q28.25 36 28.25 36ZM11.7 19.9Q11.7 19.9 11.7 19.9Q11.7 19.9 11.7 19.9Q11.7 19.9 11.7 19.9Q11.7 19.9 11.7 19.9Q11.7 19.9 11.7 19.9Q11.7 19.9 11.7 19.9Q11.7 19.9 11.7 19.9Q11.7 19.9 11.7 19.9ZM30.35 19.3Q29.8 19.3 29.4 18.9Q29 18.5 29 17.95V11.8Q29 11.25 29.4 10.85Q29.8 10.45 30.35 10.45H31.1V8.5Q31.1 7.05 32.05 6.075Q33 5.1 34.45 5.1Q35.85 5.1 36.8 6.075Q37.75 7.05 37.75 8.45V10.45H38.5Q39.05 10.45 39.45 10.85Q39.85 11.25 39.85 11.8V17.95Q39.85 18.5 39.45 18.9Q39.05 19.3 38.5 19.3ZM32.4 10.45H36.45V8.45Q36.45 7.6 35.875 7Q35.3 6.4 34.45 6.4Q33.6 6.4 33 7Q32.4 7.6 32.4 8.45Z"/></svg>
